X: 29893
T: O'Meara's
R: jig
M: 6/8
K: Dmajor
|:dcd AFD|EFD ECA,|DFA dfa|ged cBc|
dcd AFD|EFD ECA,|DFA dfa|gec d3:|
|:fed faf|ged cde|fdB gec|dcB AFA|
dcd afd|BAB gec|dcd AFD|A,CE D3:|

